X:85
T:The Ceilier
M:2/2
L:1/8
C:Ed Reavy
R:Reel
N:He would come with his fiddle to "make his ceili."
N:And he would never come without a new
N:tune or some new version of an
N:old tune he heard since his last visit.
N:He could also tell an odd
N:good story or two.
Z:Joe Reavy
K:G
Bc|d<GBd c=FAc|BGBd gfdc|Bcde =fdeg|^fdBd c=FAc|
BGGF GABc|d<GBd c2 Bc|dgfa gbag|fdcA G2:||
Bc|dggf g2 gf|dgBg dcBc|de=fe f2 fe|d=fcf dcBc|
dggf gfga|(3bag (3agf gfde|=f2 fe fdeg|^fdcA G2:||
